logos/openshift.svg

<?xml version="1.0" encoding="UTF-8" standalone="no"?>
<svg width="256px" height="237px" viewBox="0 0 256 237" version="1.1" xmlns="http://www.w3.org/2000/svg" xmlns:xlink="http://www.w3.org/1999/xlink" preserveAspectRatio="xMidYMid">
	<g>
		<path d="M74.8392681,106.892926 L33.9714147,121.763314 C34.4958336,128.315376 35.6233978,134.787442 37.211892,141.128721 L76.0290516,126.992265 C74.7846677,120.440203 74.3402448,113.672278 74.8481566,106.891656" fill="#DA2430"></path>
		<path d="M255.444071,61.7023618 C252.593416,55.8232827 249.297068,50.1410194 245.477572,44.7863591 L204.621146,59.656747 C209.37647,64.5200025 213.363578,69.9864033 216.628181,75.8324681 L255.445341,61.6998222 L255.444071,61.7023618 L255.444071,61.7023618 Z" fill="#DA2430"></path>
		<g>
			<path d="M182.950275,61.4614413 C177.809695,57.0005792 172.004032,53.1510662 165.54165,50.1365752 L165.53911,50.1365752 C127.598099,32.4485466 82.3304594,48.904889 64.6424308,86.8585985 C63.6454901,89.0001513 62.7625611,91.1647155 61.9886006,93.3462151 C59.7809164,99.7692657 58.4912936,106.33609 57.9978533,112.89241 L57.8539295,112.9456 C57.8501633,112.993635 57.8464406,113.04167 57.8427616,113.089704 L33.2472215,122.039512 L17.4207366,127.888513 C17.418462,127.859314 17.416198,127.830115 17.4139447,127.800914 L16.9799873,127.958822 C15.443554,108.523577 18.7195851,88.4470927 27.5331247,69.5476944 C28.6870135,67.0724846 29.9171924,64.6566205 31.2195686,62.3015921 C60.2738161,8.1856616 126.383568,-14.4341613 182.138317,11.9725342 C193.678037,17.4404824 203.911047,24.6094357 212.694536,33.045511 C218.60401,38.5121214 223.878405,44.5334969 228.475731,50.9860576 L187.616767,65.858985 C187.406509,65.6440827 187.194925,65.4302535 186.982018,65.2175172 L186.868906,65.2593348 C185.610426,63.9523602 184.30416,62.6849771 182.950275,61.4614413 Z" fill="#DA2430"></path>
			<path d="M19.2613217,193.896477 L19.1968952,193.91993 C10.6957214,181.949719 4.50808591,168.501485 0.938735714,154.347253 L39.7635139,140.206988 L39.7660535,140.209528 C39.7740514,140.251306 39.7820838,140.293077 39.7901508,140.334841 L40.04226,140.241601 L40.0481026,140.257181 C42.0422662,150.817822 46.1933636,160.892394 52.2458245,169.750695 C54.5535333,173.043912 57.1321413,176.165653 59.9682455,179.077478 L59.8140535,179.133611 C59.9116663,179.236598 60.0095901,179.33933 60.1078243,179.441803 L19.6202948,194.412587 C19.500171,194.240851 19.380513,194.068813 19.2613217,193.896477 Z" fill="#E82429"></path>
			<path d="M173.465486,183.446858 C152.413934,196.46429 125.412387,198.979252 101.351883,187.758961 C92.8405513,183.78963 85.425039,178.421002 79.2335941,172.064486 L38.4622439,186.908208 C38.5659908,187.054117 38.6700845,187.199805 38.7745245,187.345272 L38.754348,187.352733 C49.9644215,203.36935 65.2565512,216.75678 84.0211549,225.651222 C124.490455,244.814382 170.407927,238.152298 203.655476,212.3668 C218.543486,201.215294 230.971995,186.351361 239.368027,168.347841 C248.186646,149.452252 251.443631,129.383387 249.883072,109.963379 L248.747464,110.376585 C248.73211,110.168574 248.716217,109.960636 248.699785,109.752771 L208.210308,124.709923 L208.212255,124.713818 C207.567618,133.637473 205.349363,142.590341 201.405583,151.173176 C195.091199,164.926539 185.242012,175.882135 173.465486,183.446858 Z" fill="#DA2430"></path>
			<path d="M218.552379,75.1291912 L219.159486,74.9081957 L219.159486,74.9069259 C225.546477,88.0491438 229.444701,102.334163 230.612897,116.962023 L189.840277,131.795587 C189.847816,131.694429 189.855149,131.593274 189.862274,131.492123 L189.091251,131.776983 C190.201352,116.689345 186.816517,101.683505 179.657339,88.6544234 L218.205113,74.4042308 L218.20706,74.4003358 C218.32299,74.6428972 218.438097,74.8858507 218.552379,75.1291912 Z" fill="#E82429"></path>
		</g>
		<path d="M74.8906707,106.654031 L34.309659,121.650133 C34.8296537,128.260104 35.9494925,134.786331 37.5289522,141.182071 L76.0747786,126.924088 C74.8283493,120.302432 74.3804137,113.486022 74.9062511,106.650136" fill="#C22035"></path>
		<path d="M254.22692,61.0828228 C251.397136,55.1544934 248.121364,49.4248137 244.329492,44.0242691 L203.758218,59.0203718 C208.479069,63.9262397 212.43843,69.4377942 215.679146,75.334963 L254.221077,61.0789277 L254.22692,61.0828228 L254.22692,61.0828228 Z" fill="#C22035"></path>
		<path d="M34.3084904,121.652665 L74.7901774,106.824052 L74.624636,114.957003 L35.5685526,129.705767 L34.3026478,121.642928 L34.3084904,121.652665 L34.3084904,121.652665 Z" fill="#AC223B"></path>
		<path d="M203.766009,58.8974817 L244.8787,44.7894599 L249.151615,51.2377841 L209.205504,65.3594386 L203.771851,58.8935866 L203.766009,58.8974817 L203.766009,58.8974817 Z" fill="#AC223B"></path>
		<path d="M38.7638909,187.20102 L79.2942665,172.452256 L91.5521198,184.016782 L49.0488803,199.973025 L38.7658385,187.197125 L38.7638909,187.20102 L38.7638909,187.20102 Z" fill="#B92135"></path>
		<path d="M249.380647,109.861639 L208.215371,124.705833 L205.183043,141.184018 L249.074882,125.54133 L249.38649,109.863587 L249.380647,109.861639 L249.380647,109.861639 Z" fill="#B92135"></path>
	</g>
</svg>

<svg preserveAspectRatio="xMidYMid" viewBox="0 0 256 237" xmlns="http://www.w3.org/2000/svg">
  <path fill="#DA2430" d="m74.84 106.893-40.869 14.87c.525 6.552 1.652 13.024 3.24 19.366l38.818-14.137c-1.244-6.552-1.689-13.32-1.18-20.1"/>
  <path fill="#DA2430" d="M255.444 61.702c-2.85-5.879-6.147-11.561-9.966-16.916l-40.857 14.87c4.755 4.864 8.743 10.33 12.007 16.176L255.445 61.7v.002Z"/>
  <path fill="#DA2430" d="M182.95 61.461c-5.14-4.46-10.946-8.31-17.408-11.324h-.003C127.6 32.449 82.33 48.905 64.642 86.859a73.976 73.976 0 0 0-2.653 6.487c-2.208 6.423-3.498 12.99-3.991 19.546l-.144.054-.011.144-24.596 8.95-15.826 5.849-.007-.088-.434.158c-1.536-19.435 1.74-39.512 10.553-58.411a117.952 117.952 0 0 1 3.687-7.246c29.054-54.116 95.164-76.736 150.918-50.33a115.314 115.314 0 0 1 30.557 21.074 116.597 116.597 0 0 1 15.78 17.94L187.618 65.86a79.69 79.69 0 0 0-.635-.641l-.113.041a78.61 78.61 0 0 0-3.919-3.798Z"/>
  <path fill="#E82429" d="m19.261 193.896-.064.024A118.404 118.404 0 0 1 .939 154.347l38.825-14.14.002.003.024.125.252-.093.006.015c1.994 10.56 6.145 20.635 12.198 29.494a75.287 75.287 0 0 0 7.722 9.326l-.154.057.294.308-40.488 14.97c-.12-.171-.24-.343-.359-.516Z"/>
  <path fill="#DA2430" d="M173.465 183.447c-21.051 13.017-48.053 15.532-72.113 4.312a75.139 75.139 0 0 1-22.118-15.695l-40.772 14.844.313.437-.02.008c11.21 16.016 26.502 29.404 45.266 38.298 40.47 19.163 86.387 12.501 119.634-13.284 14.888-11.152 27.317-26.016 35.713-44.02 8.819-18.895 12.076-38.964 10.515-58.384l-1.136.414c-.015-.208-.03-.416-.047-.624l-40.49 14.957.002.004a76.457 76.457 0 0 1-6.806 26.46c-6.315 13.753-16.164 24.708-27.94 32.273Z"/>
  <path fill="#E82429" d="m218.552 75.13.607-.222v-.001a117.732 117.732 0 0 1 11.454 42.055l-40.773 14.834.022-.304-.77.285c1.11-15.088-2.275-30.093-9.435-43.123l38.548-14.25.002-.004c.116.243.231.486.345.73Z"/>
  <path fill="#C22035" d="M74.89 106.654 34.31 121.65c.52 6.61 1.64 13.136 3.219 19.532l38.546-14.258c-1.247-6.622-1.695-13.438-1.169-20.274"/>
  <path fill="#C22035" d="M254.227 61.083c-2.83-5.929-6.106-11.658-9.898-17.059L203.76 59.02c4.72 4.906 8.68 10.418 11.92 16.315l38.542-14.256.006.004Z"/>
  <path fill="#AC223B" d="m34.308 121.653 40.482-14.829-.165 8.133-39.056 14.749-1.266-8.063.005.01Z"/>
  <path fill="#AC223B" d="m203.766 58.897 41.113-14.108 4.273 6.449-39.946 14.121-5.434-6.465-.006.003Z"/>
  <path fill="#B92135" d="m38.764 187.201 40.53-14.749 12.258 11.565-42.503 15.956-10.283-12.776-.002.004Z"/>
  <path fill="#B92135" d="m249.38 109.862-41.165 14.844-3.032 16.478 43.892-15.643.311-15.677-.005-.002Z"/>
</svg>
